X: 14
T:Scoch Bamble, The. ASH.14
T:Scotch Bamble, The. ASH.14
M:4/4
L:1/8
Q:200
S:Harrison & Wall MS,Ashover,Derbyshire,1762-75
R:Reel
O:England
A:Derbyshire
Z:vmp.Chris Partington, 2003
K:A
  A/2A/2A Ac ecAc | B/2B/2B GB d2 cB |\
 A/2A/2A Ac ecdB | c>eBc A/2A/2A A2:|!
|:ce ef/2g/2 a2 ec | aecA B/2B/2B Bd |\
 cAeA aecA | c>eBc A/2A/2A2 :|]
